X: 31756
T: Path You Can't See, The
R: waltz
M: 3/4
K: Bminor
|:F2|B3d BF|D3F EF|GF EF GB|F2 FE FA|
B3d BF|D3F EF|GF EF Gc|d4:|
|:F2|BF FB dB|g3f ed|cE Ac ec|f3e dc|
BF FB dB|g3f ed|ce A2 c2|d4:|

